X:78 
T:Roy's Wife of Alldivaloch (strathspey) 
B:OFPC1.29
F:fileID ofpc1/78rwa
Y:"Scotch"
N:I rearranged this a bit.
Q:180
M:C|
L:1/8
R:hornpipe
K:D
d/B/|AFFE FEFB|AFFD EDEF|AFED defe|dBAF EDEF|
AFFE FEFB|AFFD EDEF|AFED defe|dBAG F2E ||
D|ABdf e/d/e/f/ dB|AB/c/ dF EDEF|\
ABdf e/d/g/f/ ed/e/|fedF FEF2|
ABdf e/d/e/f/ dB|AB/c/ dF EDEF|\
ABdf e/d/g/f/ ed/e/|dBAG FAGE|D8|]

